symbols/web/sim_card_download/materialsymbolsoutlined/sim_card_download_wght100grad200_24px.svg

<svg xmlns="http://www.w3.org/2000/svg" height="24" width="24"><path d="m12.025 16.4 3.6-3.6-.95-.95-2 2v-4.7h-1.35v4.7l-2-2-.95.95ZM6.7 21.5q-.925 0-1.538-.613-.612-.612-.612-1.537V8.2l5.7-5.7h7.05q.925 0 1.538.612.612.613.612 1.538v14.7q0 .925-.612 1.537-.613.613-1.538.613Zm0-1.35h10.6q.3 0 .55-.25.25-.25.25-.55V4.65q0-.3-.25-.55-.25-.25-.55-.25h-6.45L5.9 8.8v10.55q0 .3.25.55.25.25.55.25Zm0 0h-.8H18.1h-.8Z"/></svg>

<svg xmlns="http://www.w3.org/2000/svg" height="24" width="24"><path d="M6.7 21.5Q5.775 21.5 5.162 20.887Q4.55 20.275 4.55 19.35V8.2L10.25 2.5H17.3Q18.225 2.5 18.838 3.112Q19.45 3.725 19.45 4.65V19.35Q19.45 20.275 18.838 20.887Q18.225 21.5 17.3 21.5ZM6.7 20.15H17.3Q17.6 20.15 17.85 19.9Q18.1 19.65 18.1 19.35V4.65Q18.1 4.35 17.85 4.1Q17.6 3.85 17.3 3.85H10.85L5.9 8.8V19.35Q5.9 19.65 6.15 19.9Q6.4 20.15 6.7 20.15ZM12.025 16.4 15.625 12.8 14.675 11.85 12.675 13.85V9.15H11.325V13.85L9.325 11.85L8.375 12.8ZM6.7 20.15Q6.4 20.15 6.15 20.15Q5.9 20.15 5.9 20.15H10.85H17.3Q17.6 20.15 17.85 20.15Q18.1 20.15 18.1 20.15Q18.1 20.15 17.85 20.15Q17.6 20.15 17.3 20.15Z"/></svg>
